Hatter-kde/actions/22/snap-nodes-intersection.svg

<?xml version="1.0" encoding="UTF-8"?>
<svg viewBox="0 0 22 22" xmlns="http://www.w3.org/2000/svg">
 <defs id="defs3051">
  <style id="current-color-scheme" type="text/css">.ColorScheme-Text {
        color:#363636;
      }
      .ColorScheme-Highlight {
        color:#3daee9;
      }</style>
 </defs>
 <path class="ColorScheme-Text" d="m3 3v1h1v-1h-1zm15.293 0-6 6h0.70703v0.70703l6-6-0.70703-0.70703zm-13.293 2v1h1v-1h-1zm2 2v1h1v-1h-1zm2 5.293-6 6 0.70703 0.70703 6-6h-0.70703v-0.70703zm5 1.707v1h1v-1h-1zm2 2v1h1v-1h-1zm2 2v1h1v-1h-1z" fill="currentColor"/>
 <path class="ColorScheme-Highlight" d="m9 9v4h4v-4h-4zm1 1h2v2h-2v-2z" fill="currentColor"/>
</svg>

<svg xmlns="http://www.w3.org/2000/svg" viewBox="0 0 22 22">
  <defs id="defs3051">
    <style type="text/css" id="current-color-scheme">
      .ColorScheme-Text {
        color:#363636;
      }
      .ColorScheme-Highlight {
        color:#3daee9;
      }
      </style>
  </defs>
 <path 
     style="fill:currentColor;fill-opacity:1;stroke:none" 
     d="M 3 3 L 3 4 L 4 4 L 4 3 L 3 3 z M 18.292969 3 L 12.292969 9 L 13 9 L 13 9.7070312 L 19 3.7070312 L 18.292969 3 z M 5 5 L 5 6 L 6 6 L 6 5 L 5 5 z M 7 7 L 7 8 L 8 8 L 8 7 L 7 7 z M 9 12.292969 L 3 18.292969 L 3.7070312 19 L 9.7070312 13 L 9 13 L 9 12.292969 z M 14 14 L 14 15 L 15 15 L 15 14 L 14 14 z M 16 16 L 16 17 L 17 17 L 17 16 L 16 16 z M 18 18 L 18 19 L 19 19 L 19 18 L 18 18 z "
     class="ColorScheme-Text"
     />
 <path 
     style="fill:currentColor;fill-opacity:1;stroke:none" 
     d="M 9 9 L 9 13 L 13 13 L 13 9 L 9 9 z M 10 10 L 12 10 L 12 12 L 10 12 L 10 10 z "
     class="ColorScheme-Highlight"
     />
</svg>
